X: 35361
T: Rosie's Wedding
R: slip jig
M: 9/8
K: Bminor
|:Bfe dBc d2e|fgf efd cBA|
Bfe dBc d2e|1 fgf efg ~f3:|2 fgf edc B2c||
[M:6/8][K:Amix]
|:dAB def|edc dgf|ecA AB/c/d|ecA AGE|
dAB d2f|edc dgf|ecA AGE|A3 A3:|

